X: 34184
T: Reel Of Mullinavat, The
R: reel
M: 4/4
K: Edorian
f|gfed B3A|~G3B EDB,D|GE~E2 G2Bd|eBBA Bdef|
g2fg edBA|~G3B EDB,D|GE~E2 G3A|Beed e3f||
gBfB edBA|GABG EDB,D|GE~E2 G2Bd|eBBA Bdef|
g2fg edBA|~G3B EDB,D|GE~E2 G3A|Beed e3f|
|:gB~B2 gabg|afde faaf|gB~B2 gabg|afdf e3f|
g2gf gbag|fdd2 fa~a2|b2af gfed|Bgfg e3f:|

